ix/image_linear.svg

<svg viewBox="0 0 24 24" fill="none" xmlns="http://www.w3.org/2000/svg" height="1em" width="1em">
  <path d="M21.6799 16.9599L18.5499 9.64988C17.4899 7.16988 15.5399 7.06988 14.2299 9.42988L12.3399 12.8399C11.3799 14.5699 9.58993 14.7199 8.34993 13.1699L8.12993 12.8899C6.83993 11.2699 5.01993 11.4699 4.08993 13.3199L2.36993 16.7699C1.15993 19.1699 2.90993 21.9999 5.58993 21.9999H18.3499C20.9499 21.9999 22.6999 19.3499 21.6799 16.9599Z" stroke="#292D32" stroke-width="1.5" stroke-linecap="round" stroke-linejoin="round"/>
  <path d="M6.96997 8C8.62682 8 9.96997 6.65685 9.96997 5C9.96997 3.34315 8.62682 2 6.96997 2C5.31312 2 3.96997 3.34315 3.96997 5C3.96997 6.65685 5.31312 8 6.96997 8Z" stroke="#292D32" stroke-width="1.5" stroke-linecap="round" stroke-linejoin="round"/>
</svg>

<svg viewBox="0 0 24 24" fill="none" xmlns="http://www.w3.org/2000/svg" height="1em" width="1em">
  <path d="m21.68 16.96-3.13-7.31c-1.06-2.48-3.01-2.58-4.32-.22l-1.89 3.41c-.96 1.73-2.75 1.88-3.99.33l-.22-.28c-1.29-1.62-3.11-1.42-4.04.43l-1.72 3.45C1.16 19.17 2.91 22 5.59 22h12.76c2.6 0 4.35-2.65 3.33-5.04ZM6.97 8a3 3 0 1 0 0-6 3 3 0 0 0 0 6Z" stroke="#292D32" stroke-width="1.5" stroke-linecap="round" stroke-linejoin="round"/>
</svg>
